Papirus/64x64/apps/synology-note-station.svg

<svg xmlns="http://www.w3.org/2000/svg" width="64" height="64" version="1.1">
 <rect style="opacity:0.2" width="44" height="56" x="4" y="5" rx="4.125" ry="4.2"/>
 <rect style="fill:#1b8bf6" width="44" height="56" x="4" y="4" rx="4.125" ry="4.2"/>
 <path style="fill:#1559b9" d="M 3.9999998,32 V 46 H 48 V 32 Z"/>
 <path style="opacity:0.2" d="m 55.601562,11 c -0.49006,0.0079 -0.970872,0.101832 -1.42578,0.269531 -1.039794,0.383311 -1.936068,1.162799 -2.4375,2.25 l -0.835938,1.8125 -1.078126,2.34375 -0.261718,0.566407 -13.550782,29.375 -0.01172,0.02734 0.0196,0.0078 0.824218,4.46875 L 37.375,55 l 2.824218,-1.628906 3.640626,-2.101562 0.0196,0.0118 0.0156,-0.03126 13.542968,-29.371094 h 0.004 l 0.19532,-0.429688 1.140624,-2.468749 0.84375,-1.824219 c 1.002716,-2.174472 0.05357,-4.751358 -2.11733,-5.753978 C 56.874092,11.119745 56.231642,10.98979 55.601562,11 Z"/>
 <path style="opacity:0.2" d="m 12,36 v 3 h 14 v -3 z m 0,5 v 3 h 8 v -3 z"/>
 <rect style="fill:#ffffff" width="14" height="3" x="12" y="35"/>
 <rect style="fill:#ffffff" width="8" height="3" x="12" y="40"/>
 <path style="fill:#fda926" d="M 49.822358,16.675389 36,46.645048 43.860456,50.280146 57.61881,20.449266 Z"/>
 <path style="fill:#ff5058" d="m 54.174436,10.267824 c -1.039794,0.383311 -1.933908,1.164094 -2.43534,2.251296 l -0.835884,1.812367 7.854208,3.649437 0.842434,-1.82657 c 1.00286,-2.1744 0.0557,-4.750664 -2.115202,-5.753284 -1.084946,-0.5023968 -2.270424,-0.5165572 -3.310216,-0.133246 z"/>
 <path style="opacity:0.2;fill:#ffffff" d="M 55.601562 10 C 55.111503 10.0079 54.630689 10.101832 54.175781 10.269531 C 53.135987 10.652842 52.239713 11.43233 51.738281 12.519531 L 50.902344 14.332031 L 51.283203 14.507812 L 51.738281 13.519531 C 52.239713 12.43233 53.135987 11.652842 54.175781 11.269531 C 54.630689 11.101832 55.111503 11.0079 55.601562 11 C 56.231642 10.98979 56.874097 11.119745 57.484375 11.402344 C 58.903826 12.05791 59.800398 13.385375 59.970703 14.833984 C 60.179287 13.024109 59.226045 11.206726 57.484375 10.402344 C 56.874097 10.119745 56.231642 9.9897904 55.601562 10 z"/>
 <path style="fill:#facb64" d="m 39.861638,52.566092 4.012374,-2.314944 -7.860754,-3.635234 0.831816,4.506212 z"/>
 <path fill="#3d3846" d="m 37.376314,54 2.821962,-1.628626 -3.413566,-1.578616 z m 0,0"/>
 <path style="fill:#d0d0ce" d="m 49.560888,17.241919 7.860756,3.635237 1.45214,-3.148534 -7.860758,-3.635236 z m 0,0"/>
 <path style="opacity:0.2;fill:#ffffff" d="M 8.125 4 C 5.8397498 4 4 5.8724185 4 8.1992188 L 4 9.1992188 C 4 6.8724186 5.8397498 5 8.125 5 L 43.875 5 C 46.16025 5 48 6.8724186 48 9.1992188 L 48 8.1992188 C 48 5.8724185 46.16025 4 43.875 4 L 8.125 4 z"/>
</svg>

<?xml version="1.0" encoding="UTF-8" standalone="no"?>
<svg
   id="_图层_1"
   version="1.1"
   viewBox="0 0 64 64" width="64" height="64"
   sodipodi:docname="synology-note-station.svg"
   xml:space="preserve"
   inkscape:version="1.4 (e7c3feb100, 2024-10-09)"
   xmlns:inkscape="http://www.inkscape.org/namespaces/inkscape"
   xmlns:sodipodi="http://sodipodi.sourceforge.net/DTD/sodipodi-0.dtd"
   xmlns="http://www.w3.org/2000/svg"
   xmlns:svg="http://www.w3.org/2000/svg"><sodipodi:namedview
     id="namedview26"
     pagecolor="#505050"
     bordercolor="#eeeeee"
     borderopacity="1"
     inkscape:showpageshadow="0"
     inkscape:pageopacity="0"
     inkscape:pagecheckerboard="0"
     inkscape:deskcolor="#505050"
     inkscape:zoom="10.6875"
     inkscape:cx="32"
     inkscape:cy="34.152047"
     inkscape:window-width="1920"
     inkscape:window-height="939"
     inkscape:window-x="0"
     inkscape:window-y="34"
     inkscape:window-maximized="1"
     inkscape:current-layer="_图层_1" /><!-- Generator: Adobe Illustrator 29.0.1, SVG Export Plug-In . SVG Version: 2.1.0 Build 192)  --><defs
     id="defs6"><style
       id="style1">
      .st0 {
        fill-opacity: .5;
      }

      .st0, .st1, .st2, .st3, .st4, .st5, .st6, .st7 {
        fill: #fff;
      }

      .st8 {
        fill: #133c9a;
      }

      .st2, .st9 {
        display: none;
      }

      .st3 {
        fill-opacity: .2;
      }

      .st4 {
        fill-opacity: .9;
      }

      .st10 {
        fill: #3370ff;
      }

      .st11 {
        fill: url(#_未命名的渐变_3);
      }

      .st12 {
        fill: url(#_未命名的渐变);
      }

      .st5 {
        fill-opacity: .3;
      }

      .st6 {
        fill-opacity: 0;
      }

      .st7 {
        fill-opacity: .7;
      }

      .st13 {
        fill: #00d6b9;
      }

      .st14 {
        fill: url(#_未命名的渐变_2);
      }
    </style><radialGradient
       id="_未命名的渐变"
       data-name="未命名的渐变"
       cx="123.9"
       cy="-40.2"
       fx="123.9"
       fy="-40.2"
       r="59.4"
       gradientTransform="translate(-26.8 25.5) scale(.6 -.7)"
       gradientUnits="userSpaceOnUse"><stop
         offset="0"
         stop-color="#db202e"
         id="stop1" /><stop
         offset="1"
         stop-color="#e01b24"
         id="stop2" /></radialGradient><radialGradient
       id="_未命名的渐变_2"
       data-name="未命名的渐变 2"
       cx="67.6"
       cy="26.8"
       fx="67.6"
       fy="26.8"
       r="105.2"
       gradientTransform="translate(-26.6 25.3) scale(.6 -.7)"
       gradientUnits="userSpaceOnUse"><stop
         offset="0"
         stop-color="#ffb648"
         id="stop3" /><stop
         offset="1"
         stop-color="#ff7800"
         stop-opacity="0"
         id="stop4" /></radialGradient><radialGradient
       id="_未命名的渐变_3"
       data-name="未命名的渐变 3"
       cx="61.7"
       cy="18.6"
       fx="61.7"
       fy="18.6"
       r="68"
       gradientTransform="translate(-26.8 25.8) scale(.6 -.7)"
       gradientUnits="userSpaceOnUse"><stop
         offset="0"
         stop-color="#c64600"
         id="stop5" /><stop
         offset="1"
         stop-color="#a51d2d"
         id="stop6" /></radialGradient></defs><path
     class="st1"
     d="M47.5,64.1H13.8c-7.6,0-13.8-6.3-13.8-13.8V13.7C0,6.2,6.2,0,13.7,0h36.6c7.5,0,13.7,6.2,13.7,13.7v36.6c0,7.5-6.2,13.7-13.7,13.7h-2.9.1Z"
     id="path6"
     style="fill:#1b8bf6;fill-opacity:1" /><g
     id="g43"
     transform="matrix(1.1253101,0,0,1.0952088,-4.2446335,-4.0094901)"><path
       style="fill:#1559b9"
       d="M 3.9999998,32 V 46 H 48 V 32 Z"
       id="path2-1" /><path
       style="opacity:0.2"
       d="m 55.601562,11 c -0.49006,0.0079 -0.970872,0.101832 -1.42578,0.269531 -1.039794,0.383311 -1.936068,1.162799 -2.4375,2.25 l -0.835938,1.8125 -1.078126,2.34375 -0.261718,0.566407 -13.550782,29.375 -0.01172,0.02734 0.0196,0.0078 0.824218,4.46875 L 37.375,55 l 2.824218,-1.628906 3.640626,-2.101562 0.0196,0.0118 0.0156,-0.03126 13.542968,-29.371094 h 0.004 l 0.19532,-0.429688 1.140624,-2.468749 0.84375,-1.824219 c 1.002716,-2.174472 0.05357,-4.751358 -2.11733,-5.753978 C 56.874092,11.119745 56.231642,10.98979 55.601562,11 Z"
       id="path3" /><path
       style="opacity:0.2"
       d="m 12,36 v 3 h 14 v -3 z m 0,5 v 3 h 8 v -3 z"
       id="path4" /><rect
       style="fill:#ffffff"
       width="14"
       height="3"
       x="12"
       y="35"
       id="rect4" /><rect
       style="fill:#ffffff"
       width="8"
       height="3"
       x="12"
       y="40"
       id="rect5" /><path
       style="fill:#fda926"
       d="M 49.822358,16.675389 36,46.645048 43.860456,50.280146 57.61881,20.449266 Z"
       id="path5-0" /><path
       style="fill:#ff5058"
       d="m 54.174436,10.267824 c -1.039794,0.383311 -1.933908,1.164094 -2.43534,2.251296 l -0.835884,1.812367 7.854208,3.649437 0.842434,-1.82657 c 1.00286,-2.1744 0.0557,-4.750664 -2.115202,-5.753284 -1.084946,-0.5023968 -2.270424,-0.5165572 -3.310216,-0.133246 z"
       id="path6-6" /><path
       style="opacity:0.2;fill:#ffffff"
       d="m 55.601562,10 c -0.490059,0.0079 -0.970873,0.101832 -1.425781,0.269531 -1.039794,0.383311 -1.936068,1.162799 -2.4375,2.25 l -0.835937,1.8125 0.380859,0.175781 0.455078,-0.988281 c 0.501432,-1.087201 1.397706,-1.866689 2.4375,-2.25 C 54.630689,11.101832 55.111503,11.0079 55.601562,11 c 0.63008,-0.01021 1.272535,0.119745 1.882813,0.402344 1.419451,0.655566 2.316023,1.983031 2.486328,3.43164 0.208584,-1.809875 -0.744658,-3.627258 -2.486328,-4.43164 C 56.874097,10.119745 56.231642,9.9897904 55.601562,10 Z"
       id="path7" /><path
       style="fill:#facb64"
       d="m 39.861638,52.566092 4.012374,-2.314944 -7.860754,-3.635234 0.831816,4.506212 z"
       id="path8" /><path
       fill="#3d3846"
       d="m 37.376314,54 2.821962,-1.628626 -3.413566,-1.578616 z m 0,0"
       id="path9" /><path
       style="fill:#d0d0ce"
       d="m 49.560888,17.241919 7.860756,3.635237 1.45214,-3.148534 -7.860758,-3.635236 z m 0,0"
       id="path10" /></g></svg>
